!!!OTL: 112. Der Fischer.
!!!COM: J. F. Reichardt
!!!ODT: 1781
!!!ARE: Europa, Mitteleuropa, Deutschland
!!!SCT: B0112
!!!TXL: @@DE
!!!YEM: Copyright 1995, estate of Helmut Schaffrath.
**kern	**text
*ICvox	*
*Ivox	*
*M6/8	*
*clefG2	*
*k[b-]	*
*F:	*
!LO:TX:a:t=Mit angehaltener Bewegung und Stimme.	!
{8c	Das
=1	=1
4c	Waſ-
8c	-ſer
4f	rauſcht',
8c	das
=2	=2
4c	Waſ-
8c	-ſer
4g}	ſchwoll,
{8c	ein
=3	=3
4a	Fi-
8f	-ſcher
4b-/	ſaß
8g	da-
=4	=4
(4.f	-ran,
4e})	.
{8g	ſah
=5	=5
4g	nach
8g	dem
4bn	An-
8g	-gel
=6	=6
4cc	ruhe-
8g	.
4g}	-voll,
{8a	kühl
=7	=7
4g	bis
8cc	ans
4dd	Herʒ
8bn	hi-
=8	=8
4.cc	-nan.
4r}	.
{8g	Und
=9	=9
4g	wie
8a	er
4b-	ſitʒt
8f	und
=10	=10
4f	wie
8g	er
4a}	lauſcht,
{8cc	theilt
=11	=11
4cc	ſich
8f	die
4b-/	Flut
8a	em-
=12	=12
4.g	-por;
4r}	.
{8a	aus
=13	=13
4b-	dem
8cc	be-
4dd	-weg-
8cc	-ten
=14	=14
4dd	Waſſer
8ee	.
4ff}	rauſcht
{8dd	ein
=15	=15
4cc	feuchtes
8f	.
4g	Weib
8e	hervor.
=16	=16
4.f	.
4r}	.
==	==
!!!AGN: Ballade, Romanze
!!!GTL: Balladen und Romanzen
!!!ONB: ESAC (Essen Associative Code) Database: BOEHME
!!!AMT: compound duple
!!!AIN: vox
!!!EED: Helmut Schaffrath
!!!EEV: 1.0
!!@@COMMENT:"Gedicht von Goethe, 1778. Ʒuerſt in: "Volkslieder und andere Lieder". Jn Mufik geſetʒt
!!von Siegmund Freih. v. Seckendorff, J. Samml. , S. 4. Weimar 1779. Dann in Herder's
!!Volksliedern JJ. Th. , S. 3, 1779. Später in Goethe's Werken und verſchiedene Authologien,
!!ungeʒähltemal gedruckt. - Die beigeſetʒte Melodie von Fr. Reichardt ſteht in deſſen: Oden und
!!Lieder. JJJ. Th. , S. 3, 1781. Noch vielmal iſt die Ballade komponirt worden von L. Berger,
!!A. Crüger, Reißiger, Truhn, Frʒ. Schubert, Curſchmann, E. Leonhard, C. Löwe u. a. Letʒtere vier
!!ſchufen großartige Meiſterwerke"
!!@@END:
!!Text: J. W. v. Goethe
!!!URL-scan: https://archive.org/details/BoehmeVtLieder1895/page/n117/mode/2up
!!!ENC: Anna Maria Matuszewska
!!!EEV: 2024/17/06
*-	*-
